SVG_Azure_All/Azure Synapse Analytics Serverless SQL Pool.svg

<?xml version="1.0" encoding="UTF-8" standalone="no"?>
<!-- Generated by Microsoft Visio, SVG Export Azure Synapse Analytics Serverless SQL Pool.svg Page-1 -->

<svg
   xmlns:dc="http://purl.org/dc/elements/1.1/"
   xmlns:cc="http://creativecommons.org/ns#"
   xmlns:rdf="http://www.w3.org/1999/02/22-rdf-syntax-ns#"
   xmlns:svg="http://www.w3.org/2000/svg"
   xmlns="http://www.w3.org/2000/svg"
   xmlns:sodipodi="http://sodipodi.sourceforge.net/DTD/sodipodi-0.dtd"
   xmlns:inkscape="http://www.inkscape.org/namespaces/inkscape"
   width="0.74803704in"
   height="0.78747636in"
   viewBox="0 0 53.858636 56.698439"
   xml:space="preserve"
   class="st6"
   version="1.1"
   id="svg94"
   sodipodi:docname="Azure Synapse Analytics Serverless SQL Pool.svg"
   style="font-size:12px;overflow:visible;color-interpolation-filters:sRGB;fill:none;fill-rule:evenodd;stroke-linecap:square;stroke-miterlimit:3"
   inkscape:version="0.92.5 (2060ec1f9f, 2020-04-08)"><metadata
   id="metadata98"><rdf:RDF><cc:Work
       rdf:about=""><dc:format>image/svg+xml</dc:format><dc:type
         rdf:resource="http://purl.org/dc/dcmitype/StillImage" /></cc:Work></rdf:RDF></metadata><sodipodi:namedview
   pagecolor="#ffffff"
   bordercolor="#666666"
   borderopacity="1"
   objecttolerance="10"
   gridtolerance="10"
   guidetolerance="10"
   inkscape:pageopacity="0"
   inkscape:pageshadow="2"
   inkscape:window-width="640"
   inkscape:window-height="480"
   id="namedview96"
   showgrid="false"
   inkscape:zoom="1.8365233"
   inkscape:cx="35.905404"
   inkscape:cy="18.900351"
   inkscape:window-x="0"
   inkscape:window-y="0"
   inkscape:window-maximized="0"
   inkscape:current-layer="svg94" />
	<style
   type="text/css"
   id="style2">
	<![CDATA[
		.st1 {fill:#0078d4;stroke:none;stroke-linecap:butt;stroke-width:0.75}
		.st2 {fill:url(#grad0-12);stroke:none;stroke-linecap:butt;stroke-width:0.75}
		.st3 {fill:#50e6ff;stroke:none;stroke-linecap:butt;stroke-width:0.75}
		.st4 {fill:url(#grad0-20);stroke:none;stroke-linecap:butt;stroke-width:0.75}
		.st5 {fill:#000000;stroke:none;stroke-linecap:butt;stroke-width:0.75}
		.st6 {fill:none;fill-rule:evenodd;font-size:12px;overflow:visible;stroke-linecap:square;stroke-miterlimit:3}
	]]>
	</style>

	<defs
   id="Patterns_And_Gradients">
		<linearGradient
   id="grad0-12"
   x1="0"
   y1="138.23472"
   x2="24.320946"
   y2="138.23472"
   gradientTransform="scale(1.686612,0.59290458)"
   gradientUnits="userSpaceOnUse">
			<stop
   offset="0.2"
   stop-color="#005ba1"
   stop-opacity="1"
   id="stop4" />
			<stop
   offset="1"
   stop-color="#0078d4"
   stop-opacity="1"
   id="stop6" />
		</linearGradient>
		<linearGradient
   id="grad0-20"
   x1="-1.2452644"
   y1="88.607881"
   x2="21.454647"
   y2="88.607881"
   gradientTransform="scale(1.1377489,0.87892854)"
   gradientUnits="userSpaceOnUse">
			<stop
   offset="0"
   stop-color="#198ab3"
   stop-opacity="1"
   id="stop9" />
			<stop
   offset="0.17"
   stop-color="#32bedd"
   stop-opacity="1"
   id="stop11" />
			<stop
   offset="0.5"
   stop-color="#50e6ff"
   stop-opacity="1"
   id="stop13" />
			<stop
   offset="0.5"
   stop-color="#4fe4fd"
   stop-opacity="1"
   id="stop15" />
			<stop
   offset="0.5"
   stop-color="#4bddf8"
   stop-opacity="1"
   id="stop17" />
			<stop
   offset="0.5"
   stop-color="#44d2ee"
   stop-opacity="1"
   id="stop19" />
			<stop
   offset="0.5"
   stop-color="#3ac1e0"
   stop-opacity="1"
   id="stop21" />
			<stop
   offset="0.5"
   stop-color="#2dabce"
   stop-opacity="1"
   id="stop23" />
			<stop
   offset="0.5"
   stop-color="#1d90b8"
   stop-opacity="1"
   id="stop25" />
			<stop
   offset="0.5"
   stop-color="#198ab3"
   stop-opacity="1"
   id="stop27" />
			<stop
   offset="0.66"
   stop-color="#32bedd"
   stop-opacity="1"
   id="stop29" />
			<stop
   offset="0.975"
   stop-color="#50e6ff"
   stop-opacity="1"
   id="stop31" />
		</linearGradient>
	</defs>
	<g
   id="g92"
   transform="translate(-5.3859292,-5.66586)">
		<title
   id="title35">Page-1</title>
		<g
   id="group7455-1"
   transform="translate(5.38583,-34.0157)">
			<title
   id="title37">Azure Synapse Analytics Serverless SQL Pool</title>
			<g
   id="group7456-2">
				<title
   id="title39">Page-1</title>
				<g
   id="group7457-3">
					<title
   id="title41">Sheet.7457</title>
					<g
   id="group7458-4"
   transform="translate(0,-8.47184)">
						<title
   id="title43">Sheet.7458</title>
						<g
   id="group7459-5">
							<title
   id="title45">Sheet.7459</title>
							<g
   id="shape7460-6">
								<title
   id="title47">Sheet.7460</title>
								<path
   d="M 20.51,48.16 0,60.19 V 84.21 L 20.51,96.38 41.02,84.35 V 60.25 Z M 37.23,81.83 20.51,91.74 3.79,81.94 V 62.58 l 16.72,-9.92 16.72,9.94 z"
   class="st1"
   id="path49"
   inkscape:connector-curvature="0"
   style="fill:#0078d4;stroke:none;stroke-width:0.75;stroke-linecap:butt" />
							</g>
						</g>
						<g
   id="group7461-8"
   transform="translate(0,-33.8066)">
							<title
   id="title53">Sheet.7461</title>
							<g
   id="shape7462-9">
								<title
   id="title55">Sheet.7462</title>
								<path
   d="M 20.51,81.96 0,93.99 l 3.79,2.39 16.72,-9.92 16.72,9.92 3.79,-2.39 z"
   class="st2"
   id="path57"
   inkscape:connector-curvature="0"
   style="fill:url(#grad0-12);stroke:none;stroke-width:0.75;stroke-linecap:butt" />
							</g>
						</g>
						<g
   id="group7463-13"
   transform="translate(6.43496,-6.02465)">
							<title
   id="title61">Sheet.7463</title>
							<g
   id="shape7464-14">
								<title
   id="title63">Sheet.7464</title>
								<path
   d="M 23.85,82.24 A 1.90724,1.95554 -180 0 0 23,81.48 15.2448,15.6308 -180 0 0 11.3,72.51 L 28.23,62.49 24.29,60.18 5.02,71.6 A 1.95949,2.00911 -180 0 0 6,75.35 1.78706,1.83231 -180 0 0 6.23,75.29 l 0.33,1.4 a 11.2841,11.5698 0 0 1 12.65,5.99 L 0,94.06 3.92,96.38 23.13,84.99 a 1.90463,1.95286 -180 0 0 0.63,-0.63 l 0.2,-0.04 c -0.02,-0.08 -0.05,-0.16 -0.07,-0.23 a 1.9203,1.96893 -180 0 0 -0.04,-1.85 z"
   class="st3"
   id="path65"
   inkscape:connector-curvature="0"
   style="fill:#50e6ff;stroke:none;stroke-width:0.75;stroke-linecap:butt" />
							</g>
						</g>
						<g
   id="group7465-16"
   transform="translate(9.01763,-15.6162)">
							<title
   id="title69">Sheet.7465</title>
							<g
   id="shape7466-17">
								<title
   id="title71">Sheet.7466</title>
								<path
   d="m 19.57,87.92 a 4.8334,4.9558 -180 1 0 4.84,4.96 4.8334,4.9558 -180 0 0 -4.84,-4.96 z M 3.41,77.88 a 4.8334,4.9558 -180 1 0 4.84,4.96 4.8334,4.9558 -180 0 0 -4.84,-4.96 z"
   class="st4"
   id="path73"
   inkscape:connector-curvature="0"
   style="fill:url(#grad0-20);stroke:none;stroke-width:0.75;stroke-linecap:butt" />
							</g>
						</g>
					</g>
					<g
   id="group7467-21"
   transform="translate(35.5088)">
						<title
   id="title78">Sheet.7467</title>
						<g
   id="group7468-22">
							<title
   id="title80">Sheet.7468</title>
							<g
   id="shape7469-23">
								<title
   id="title82">Sheet.7469</title>
								<path
   d="m 8.13,93.69 v 0.13 l 0.65,1.07 C 8.52,94.96 8.25,95.01 8,95.02 7.74,95.03 7.47,95.04 7.21,95.04 6.78,95.04 6.37,95.02 5.95,94.99 5.53,94.96 5.13,94.92 4.71,94.84 4.46,94.79 4.17,94.74 3.84,94.66 3.51,94.58 3.17,94.48 2.82,94.36 2.46,94.24 2.12,94.1 1.78,93.94 1.45,93.77 1.14,93.58 0.88,93.35 0.61,93.14 0.41,92.89 0.24,92.61 0.09,92.33 0.01,92.02 0,91.67 V 79.58 C 0,79.24 0.08,78.93 0.23,78.66 0.4,78.39 0.6,78.14 0.88,77.91 1.15,77.69 1.45,77.5 1.78,77.33 2.11,77.16 2.45,77.01 2.81,76.89 3.16,76.78 3.5,76.67 3.83,76.6 4.16,76.52 4.46,76.46 4.71,76.42 5.13,76.35 5.53,76.3 5.95,76.27 c 0.42,-0.02 0.83,-0.05 1.26,-0.05 0.42,0 0.85,0.02 1.26,0.04 0.42,0.03 0.83,0.09 1.23,0.16 0.26,0.04 0.55,0.1 0.88,0.18 0.33,0.07 0.67,0.18 1.02,0.29 0.35,0.12 0.7,0.27 1.03,0.44 0.34,0.17 0.64,0.36 0.9,0.57 0.28,0.22 0.48,0.46 0.64,0.74 0.16,0.29 0.24,0.6 0.25,0.94 v 6.05 H 13.1 v -4.04 c -0.41,0.24 -0.87,0.44 -1.36,0.61 -0.48,0.16 -0.98,0.3 -1.5,0.42 -0.52,0.11 -1.03,0.19 -1.55,0.23 -0.51,0.06 -1.01,0.08 -1.48,0.09 -0.47,0 -0.97,-0.02 -1.48,-0.07 C 5.2,82.83 4.69,82.76 4.16,82.67 3.63,82.57 3.13,82.44 2.66,82.26 2.17,82.09 1.72,81.86 1.31,81.59 v 10.08 c 0,0.14 0.05,0.27 0.16,0.41 0.11,0.12 0.22,0.22 0.32,0.3 0.33,0.25 0.72,0.46 1.18,0.63 0.45,0.16 0.93,0.3 1.42,0.4 0.49,0.1 0.99,0.17 1.49,0.22 0.5,0.05 0.94,0.07 1.33,0.06 z M 7.21,77.56 c -0.39,0 -0.83,0.03 -1.33,0.07 -0.5,0.04 -1.01,0.11 -1.52,0.23 -0.51,0.11 -0.99,0.26 -1.45,0.42 -0.46,0.16 -0.85,0.39 -1.18,0.65 -0.09,0.07 -0.18,0.18 -0.28,0.29 -0.09,0.11 -0.13,0.22 -0.14,0.36 0,0.13 0.04,0.26 0.14,0.37 0.09,0.11 0.17,0.2 0.28,0.28 0.32,0.27 0.72,0.48 1.18,0.66 0.46,0.17 0.94,0.32 1.45,0.42 0.5,0.11 1.01,0.18 1.51,0.23 0.5,0.04 0.95,0.05 1.34,0.05 0.38,0 0.83,-0.01 1.33,-0.05 0.5,-0.05 1.01,-0.12 1.51,-0.23 0.52,-0.1 1,-0.25 1.46,-0.42 0.45,-0.18 0.85,-0.39 1.18,-0.66 0.1,-0.08 0.18,-0.17 0.27,-0.28 0.09,-0.11 0.14,-0.24 0.14,-0.37 0,-0.14 -0.04,-0.25 -0.13,-0.36 C 12.88,79.11 12.79,79 12.69,78.93 12.37,78.67 11.97,78.45 11.51,78.28 11.04,78.1 10.56,77.97 10.05,77.86 9.55,77.76 9.04,77.68 8.55,77.64 8.06,77.6 7.61,77.58 7.21,77.56 Z m 8.78,10.09 c 0.35,0.19 0.67,0.43 0.95,0.72 0.29,0.29 0.54,0.6 0.75,0.96 0.22,0.36 0.37,0.74 0.48,1.13 0.11,0.39 0.17,0.8 0.18,1.21 0,0.65 -0.12,1.24 -0.37,1.82 -0.25,0.56 -0.57,1.05 -0.99,1.49 -0.42,0.44 -0.9,0.78 -1.46,1.02 -0.55,0.24 -1.14,0.37 -1.77,0.38 C 13.14,96.38 12.55,96.25 12,96 11.45,95.75 10.96,95.41 10.54,94.98 10.11,94.56 9.78,94.06 9.55,93.49 9.31,92.92 9.19,92.32 9.17,91.67 c 0,-0.39 0.06,-0.79 0.17,-1.18 0.11,-0.39 0.26,-0.76 0.45,-1.11 0.19,-0.35 0.43,-0.68 0.7,-0.98 0.29,-0.3 0.59,-0.55 0.91,-0.75 l 0.66,1.2 c -0.26,0.15 -0.49,0.32 -0.69,0.53 -0.2,0.2 -0.36,0.45 -0.49,0.71 -0.14,0.27 -0.23,0.55 -0.29,0.84 -0.07,0.29 -0.1,0.59 -0.11,0.88 0,0.47 0.09,0.91 0.26,1.32 0.17,0.4 0.4,0.76 0.7,1.06 0.29,0.31 0.63,0.55 1.03,0.71 0.39,0.17 0.83,0.26 1.29,0.27 0.46,0 0.89,-0.09 1.29,-0.27 0.39,-0.16 0.73,-0.4 1.04,-0.71 0.3,-0.3 0.53,-0.65 0.69,-1.05 0.16,-0.41 0.25,-0.86 0.26,-1.33 0,-0.62 -0.16,-1.19 -0.47,-1.7 -0.32,-0.51 -0.72,-0.93 -1.23,-1.26 z m -2.89,4.7 v -5.38 h 1.32 v 5.38 z"
   class="st5"
   id="path84"
   inkscape:connector-curvature="0"
   style="fill:#000000;stroke:none;stroke-width:0.75;stroke-linecap:butt" />
							</g>
						</g>
					</g>
				</g>
			</g>
		</g>
	</g>
</svg>

<?xml version="1.0" encoding="UTF-8" standalone="no"?>
<!DOCTYPE svg PUBLIC "-//W3C//DTD SVG 1.1//EN" "http://www.w3.org/Graphics/SVG/1.1/DTD/svg11.dtd">
<!-- Generated by Microsoft Visio, SVG Export Azure Synapse Analytics Serverless SQL Pool.svg Page-1 -->
<svg xmlns="http://www.w3.org/2000/svg" xmlns:xlink="http://www.w3.org/1999/xlink" xmlns:ev="http://www.w3.org/2001/xml-events"
		width="0.897638in" height="1.33858in" viewBox="0 0 64.6299 96.378" xml:space="preserve" color-interpolation-filters="sRGB"
		class="st6">
	<style type="text/css">
	<![CDATA[
		.st1 {fill:#0078d4;stroke:none;stroke-linecap:butt;stroke-width:0.75}
		.st2 {fill:url(#grad0-12);stroke:none;stroke-linecap:butt;stroke-width:0.75}
		.st3 {fill:#50e6ff;stroke:none;stroke-linecap:butt;stroke-width:0.75}
		.st4 {fill:url(#grad0-20);stroke:none;stroke-linecap:butt;stroke-width:0.75}
		.st5 {fill:#000000;stroke:none;stroke-linecap:butt;stroke-width:0.75}
		.st6 {fill:none;fill-rule:evenodd;font-size:12px;overflow:visible;stroke-linecap:square;stroke-miterlimit:3}
	]]>
	</style>

	<defs id="Patterns_And_Gradients">
		<linearGradient id="grad0-12" x1="0" y1="0" x2="1" y2="0" gradientTransform="rotate(-90 0.5 0.5)">
			<stop offset="0.2" stop-color="#005ba1" stop-opacity="1"/>
			<stop offset="1" stop-color="#0078d4" stop-opacity="1"/>
		</linearGradient>
		<linearGradient id="grad0-20" x1="0" y1="0" x2="1" y2="0" gradientTransform="rotate(-90 0.5 0.5)">
			<stop offset="0" stop-color="#198ab3" stop-opacity="1"/>
			<stop offset="0.17" stop-color="#32bedd" stop-opacity="1"/>
			<stop offset="0.5" stop-color="#50e6ff" stop-opacity="1"/>
			<stop offset="0.5" stop-color="#4fe4fd" stop-opacity="1"/>
			<stop offset="0.5" stop-color="#4bddf8" stop-opacity="1"/>
			<stop offset="0.5" stop-color="#44d2ee" stop-opacity="1"/>
			<stop offset="0.5" stop-color="#3ac1e0" stop-opacity="1"/>
			<stop offset="0.5" stop-color="#2dabce" stop-opacity="1"/>
			<stop offset="0.5" stop-color="#1d90b8" stop-opacity="1"/>
			<stop offset="0.5" stop-color="#198ab3" stop-opacity="1"/>
			<stop offset="0.66" stop-color="#32bedd" stop-opacity="1"/>
			<stop offset="0.975" stop-color="#50e6ff" stop-opacity="1"/>
		</linearGradient>
	</defs>
	<g>
		<title>Page-1</title>
		<g id="group7282-1" transform="translate(5.38583,-34.0157)">
			<title>Azure Synapse Analytics Serverless SQL Pool</title>
			<g id="group7283-2">
				<title>Page-1</title>
				<g id="group7284-3">
					<title>Sheet.7284</title>
					<g id="group7285-4" transform="translate(2.71783E-13,-8.47184)">
						<title>Sheet.7285</title>
						<g id="group7286-5">
							<title>Sheet.7286</title>
							<g id="shape7287-6">
								<title>Sheet.7287</title>
								<path d="M20.51 48.16 L0 60.19 L0 84.21 L20.51 96.38 L41.02 84.35 L41.02 60.25 L20.51 48.16 ZM37.23
											 81.83 L20.51 91.74 L3.79 81.94 L3.79 62.58 L20.51 52.66 L37.23 62.6 L37.23 81.83 Z"
										class="st1"/>
							</g>
						</g>
						<g id="group7288-8" transform="translate(0,-33.8066)">
							<title>Sheet.7288</title>
							<g id="shape7289-9">
								<title>Sheet.7289</title>
								<path d="M20.51 81.96 L0 93.99 L3.79 96.38 L20.51 86.46 L37.23 96.38 L41.02 93.99 L20.51 81.96 Z"
										class="st2"/>
							</g>
						</g>
						<g id="group7290-13" transform="translate(6.43496,-6.02465)">
							<title>Sheet.7290</title>
							<g id="shape7291-14">
								<title>Sheet.7291</title>
								<path d="M23.85 82.24 A1.90724 1.95554 -180 0 0 23 81.48 A15.2448 15.6308 -180 0 0 11.3 72.51 L28.23
											 62.49 L24.29 60.18 L5.02 71.6 A1.95949 2.00911 -180 0 0 6 75.35 A1.78706 1.83231 -180
											 0 0 6.23 75.29 L6.56 76.69 A11.2841 11.5698 0 0 1 19.21 82.68 L0 94.06 L3.92 96.38 L23.13
											 84.99 A1.90463 1.95286 -180 0 0 23.76 84.36 L23.96 84.32 C23.94 84.24 23.91 84.16 23.89
											 84.09 A1.9203 1.96893 -180 0 0 23.85 82.24 Z" class="st3"/>
							</g>
						</g>
						<g id="group7292-16" transform="translate(9.01763,-15.6162)">
							<title>Sheet.7292</title>
							<g id="shape7293-17">
								<title>Sheet.7293</title>
								<path d="M19.57 87.92 A4.8334 4.9558 -180 1 0 24.41 92.88 A4.8334 4.9558 -180 0 0 19.57 87.92 ZM3.41
											 77.88 A4.8334 4.9558 -180 1 0 8.25 82.84 A4.8334 4.9558 -180 0 0 3.41 77.88 Z"
										class="st4"/>
							</g>
						</g>
					</g>
					<g id="group7294-21" transform="translate(35.5088,1.42109E-14)">
						<title>Sheet.7294</title>
						<g id="group7295-22">
							<title>Sheet.7295</title>
							<g id="shape7296-23">
								<title>Sheet.7296</title>
								<path d="M8.13 93.69 L8.13 93.82 L8.78 94.89 C8.52 94.96 8.25 95.01 8 95.02 C7.74 95.03 7.47 95.04
											 7.21 95.04 C6.78 95.04 6.37 95.02 5.95 94.99 C5.53 94.96 5.13 94.92 4.71 94.84 C4.46
											 94.79 4.17 94.74 3.84 94.66 C3.51 94.58 3.17 94.48 2.82 94.36 C2.46 94.24 2.12 94.1
											 1.78 93.94 C1.45 93.77 1.14 93.58 0.88 93.35 C0.61 93.14 0.41 92.89 0.24 92.61 C0.09
											 92.33 0.01 92.02 0 91.67 L0 79.58 C0 79.24 0.08 78.93 0.23 78.66 C0.4 78.39 0.6 78.14
											 0.88 77.91 C1.15 77.69 1.45 77.5 1.78 77.33 C2.11 77.16 2.45 77.01 2.81 76.89 C3.16
											 76.78 3.5 76.67 3.83 76.6 C4.16 76.52 4.46 76.46 4.71 76.42 C5.13 76.35 5.53 76.3 5.95
											 76.27 C6.37 76.25 6.78 76.22 7.21 76.22 C7.63 76.22 8.06 76.24 8.47 76.26 C8.89 76.29
											 9.3 76.35 9.7 76.42 C9.96 76.46 10.25 76.52 10.58 76.6 C10.91 76.67 11.25 76.78 11.6
											 76.89 C11.95 77.01 12.3 77.16 12.63 77.33 C12.97 77.5 13.27 77.69 13.53 77.9 C13.81
											 78.12 14.01 78.36 14.17 78.64 C14.33 78.93 14.41 79.24 14.42 79.58 L14.42 85.63 L13.1
											 85.63 L13.1 81.59 C12.69 81.83 12.23 82.03 11.74 82.2 C11.26 82.36 10.76 82.5 10.24
											 82.62 C9.72 82.73 9.21 82.81 8.69 82.85 C8.18 82.91 7.68 82.93 7.21 82.94 C6.74 82.94
											 6.24 82.92 5.73 82.87 C5.2 82.83 4.69 82.76 4.16 82.67 C3.63 82.57 3.13 82.44 2.66 82.26
											 C2.17 82.09 1.72 81.86 1.31 81.59 L1.31 91.67 C1.31 91.81 1.36 91.94 1.47 92.08 C1.58
											 92.2 1.69 92.3 1.79 92.38 C2.12 92.63 2.51 92.84 2.97 93.01 C3.42 93.17 3.9 93.31 4.39
											 93.41 C4.88 93.51 5.38 93.58 5.88 93.63 C6.38 93.68 6.82 93.7 7.21 93.69 L8.13 93.69
											 ZM7.21 77.56 C6.82 77.56 6.38 77.59 5.88 77.63 C5.38 77.67 4.87 77.74 4.36 77.86 C3.85
											 77.97 3.37 78.12 2.91 78.28 C2.45 78.44 2.06 78.67 1.73 78.93 C1.64 79 1.55 79.11 1.45
											 79.22 C1.36 79.33 1.32 79.44 1.31 79.58 C1.31 79.71 1.35 79.84 1.45 79.95 C1.54 80.06
											 1.62 80.15 1.73 80.23 C2.05 80.5 2.45 80.71 2.91 80.89 C3.37 81.06 3.85 81.21 4.36 81.31
											 C4.86 81.42 5.37 81.49 5.87 81.54 C6.37 81.58 6.82 81.59 7.21 81.59 C7.59 81.59 8.04
											 81.58 8.54 81.54 C9.04 81.49 9.55 81.42 10.05 81.31 C10.57 81.21 11.05 81.06 11.51 80.89
											 C11.96 80.71 12.36 80.5 12.69 80.23 C12.79 80.15 12.87 80.06 12.96 79.95 C13.05 79.84
											 13.1 79.71 13.1 79.58 C13.1 79.44 13.06 79.33 12.97 79.22 C12.88 79.11 12.79 79 12.69
											 78.93 C12.37 78.67 11.97 78.45 11.51 78.28 C11.04 78.1 10.56 77.97 10.05 77.86 C9.55
											 77.76 9.04 77.68 8.55 77.64 C8.06 77.6 7.61 77.58 7.21 77.56 ZM15.99 87.65 C16.34 87.84
											 16.66 88.08 16.94 88.37 C17.23 88.66 17.48 88.97 17.69 89.33 C17.91 89.69 18.06 90.07
											 18.17 90.46 C18.28 90.85 18.34 91.26 18.35 91.67 C18.35 92.32 18.23 92.91 17.98 93.49
											 C17.73 94.05 17.41 94.54 16.99 94.98 C16.57 95.42 16.09 95.76 15.53 96 C14.98 96.24
											 14.39 96.37 13.76 96.38 C13.14 96.38 12.55 96.25 12 96 C11.45 95.75 10.96 95.41 10.54
											 94.98 C10.11 94.56 9.78 94.06 9.55 93.49 C9.31 92.92 9.19 92.32 9.17 91.67 C9.17 91.28
											 9.23 90.88 9.34 90.49 C9.45 90.1 9.6 89.73 9.79 89.38 C9.98 89.03 10.22 88.7 10.49 88.4
											 C10.78 88.1 11.08 87.85 11.4 87.65 L12.06 88.85 C11.8 89 11.57 89.17 11.37 89.38 C11.17
											 89.58 11.01 89.83 10.88 90.09 C10.74 90.36 10.65 90.64 10.59 90.93 C10.52 91.22 10.49
											 91.52 10.48 91.81 C10.48 92.28 10.57 92.72 10.74 93.13 C10.91 93.53 11.14 93.89 11.44
											 94.19 C11.73 94.5 12.07 94.74 12.47 94.9 C12.86 95.07 13.3 95.16 13.76 95.17 C14.22
											 95.17 14.65 95.08 15.05 94.9 C15.44 94.74 15.78 94.5 16.09 94.19 C16.39 93.89 16.62
											 93.54 16.78 93.14 C16.94 92.73 17.03 92.28 17.04 91.81 C17.04 91.19 16.88 90.62 16.57
											 90.11 C16.25 89.6 15.85 89.18 15.34 88.85 L15.99 87.65 ZM13.1 92.35 L13.1 86.97 L14.42
											 86.97 L14.42 92.35 L13.1 92.35 Z" class="st5"/>
							</g>
						</g>
					</g>
				</g>
			</g>
		</g>
	</g>
</svg>
